X:1
T:Snow Deer
R:reel
I:Snow DeerS-SCsquare
%C: S-S
C:Bob Wills
D:From The Essential Texas Fiddle by Joe Stephenson
Z:Transcribed to abc by Debbie Knight, edited by Mary Lou Knack
M:C|
K:C
V:1
G2c2d2|\
"C"e2e^d e2ef| e2c2 B2c2| "D"d2d^c d2de | "D7"d2c2 B2A2| \
  "G7"G4 d4-| d2c2 B2A2| "C"G4 e4| e2G2 c2d2|
"C"e2e^d- e2ef| e2c2 B2c2| "D"d2d^c d2de | "D7"d2c2 B2A2| \
  "G7"G4 d4-| d2c2 d2e2| "C"c8- | c2c2 "C7"d2e2|
"F"f4 A4-| A2c2 B2A2| "C"G4 e4-| e4 e3f| \
   "G"e2d2 d2^cd-| d4 d3e| "C"d2c2 c2Bc-|c2c2 "C7"d2e2|
"F"f4 A4-| A2c2 B2A2| "C"G4 e4-| e4 e3f| \
   "G7"e2d2 d2^cd-|d2f2 e2d2| "C"c8 | z2 :|
"tag line:"\
| _AAFA BBAB| ddBd f2f2| gef^f ge=f^f| g^f=fe-e4|
V:2
C2E2F2| \
G2G^F G2GA |G2E2 D2E2 |^F2FE F2FG |^F2E2 D2C2 | \
     B,4 F4- |F2E2 D2B,2 |C4 G4- |G2C2 E2F2 |
G2G^F G2GA |G2E2 D2E2 |^F2FE F2FG |F2E2 D2C2 | \
     B,4 F4- |F2E2 F2G2 | E8- |E2E2 F2G2|
A4 F4- |F2A2  G2F2 | E4 G4- |G4 G3A | \
     G2F2 F2EF- |F4 F3G | F2E2 E2DE- |E2 E2F2G2|
A4 F4- |F2A2  G2F2 | E4 G4- |G4 G3A | \
     G2F2 F2EF- |F2A2 G2F2| E8 | z2 :|
"tag line:"\
| FFDF _AAFA| BB_AB d2d2| ecd^d ec=d^d| e^d=dc- c4|
